X:1
T:Höret mir zu
T:Joachim a Burck
T:Source : Breitkopf & Härtel---Leipzig---R.Eitner---1898. First print : 20 Deutsche Liedlein zu 4 Stimmen---Erfurt---G.Baumann---1575. Editor : André Vierendeels (04/11/17). Notes : Original clefs : C1, C3, C4, F4 Editorial accidentals above the staff Text by Ludovico Helmbold (Christeliche Reimen)
T:-natural
T:Höret mir zu
T:©
T:©
T:©
T:©
C:Joachim a Burck
Z:©
%%score [ 1 2 3 4 ]
L:1/8
Q:1/4=120
M:4/4
K:F
V:1 treble nm="Soprano" snm="S"
V:2 treble nm="Alto" snm="A"
V:3 treble-8 nm="Tenor" snm="T"
V:4 bass nm="Bass" snm="B"
V:1
"^1)" G4 G4 | G2 A4 B2 | G2 G2 ^F4 | z2 F2 F2 G2 | G4 A2 G2- | G2 ^F2 G4 | G4 A4- | A2 G2 F4 | %8
w: Hö- ret|mir zu, spricht|Gott der Herr:|war- lich, da|gilt sonst kei-|* ner mehr,|er helfst|_ auch wie|
w: Hö- re,|du Volk, hör|mich al- lein,|in wel- ches|Hertz ge- schrie-|* ben sein,|mei- nes|_ ge- set-|
 F4 _E4 | D4 z2 d2- | d2 d2 c4 | B2 A2 F2 G2 | A4 z2 G2 | G2 G2 A4 | G2 F4 E2 | F4 A4 | d4 c4 | %17
w: er wol-|le, die|_ ihr ken-|net Ge- rech- tig|keit, wer|an- ders sagt|ver- führt die|Leut und|thut nicht|
w: zes Wor-|te. Mit|_ dem Mund|ists nicht aus- ge-|richt, vor-|ge- bens ist|der Men- schen|gdicht an|al- lem|
 B2 A4 G2- |"^#""^#" G2 FE F4 | G4 F4 | F2 G4 A2- | A2 B4 G2- |"^#""^#" G2 FE F4 | G8 |] %24
w: was er soll-||te, und|thut nicht was|_ er soll-||te.|
w: heil- gen Or-||te, an|al- lem heil-|* gen Or-||te.|
V:2
"^2)""^1)" D4 D4 | E2 F4 F2 | _E2 E2 D4 | z2 D2 D2 D2 | E4 F2 D2- | D2 D2 D4 | D4 F4- | F2 E2 D4 | %8
w: Hö- ret|mir zu, spricht|Gott der Herr:|war- lich, da|gilt sonst kei-|* ner mehr,|er helfst|_ auch wie|
w: A- ber|mein Ge- rech-|* tig- keit|blei- bet be-|stehn in E-|* wig- keit,|ge- gründt|_ auf mei-|
 D4 C4 | F,4 z2 F2- | F2 F2 F4 | D2 F2 F2 E2 | F4 z2 E2 | E2 E2 F4 | E2 D4 ^C2 | D4 F4 | F4 _E4 | %17
w: er wol-|te, die|_ ihr ken-|net Ge- rech- tig-|keit, wer|an- ders sagt|ver- führt die|Leut und|thut nicht|
w: nen Na-|men. Mein|_ Heil das|we- ret für und|für; glaubt,|Je- sus Chri-|stus ist die|Thür, so|werd ihr|
 D4 C4 | D8 | D6 D2 | D4 E4 | FEDC B,2 C2 | D8 | D8 |] %24
w: was er|soll-|te, und|thut nicht|was _ _ _ _ er|soll-|te.|
w: Se- lig,|A-|men, so|werd ihr|se- * * * * lig,|A-|men.|
V:3
"^3)""^1)" G4 B4 | c2 c4 d2 | B2 c2 A4 | z2 A2 A2 B2 | c4 c2 B2- | B2 A2 G4 | B4 c4 | c4 A4 | %8
w: Hö- ret|mir zu, spricht|Gott der Herr:|war- lich, da|gilt sonst kei-|* ner mehr,|er helfst|auch wie|
 B2 B3 A A2 | B4 z2 B2- | B2 B2 A4 | B2 c2 d2 B2 | c4 z2 c2 | c2 c2 c4 | c2 A4 A2 | A4 z2 F2 | %16
w: er wol- * *|te, die|_ ihr ken-|net Ge- rech- tig-|keit, wer|an- ders sagt|ver- führt die|Leut und|
 B3 A G2 G2 | F4 G4 | A2 B2 A4 | G4 A4 | B2 d2 cBAG | F4 G4 | A2 B2 A4 | G8 |] %24
w: thut _ _ nicht|was er|soll- * *|te, und|thut nicht was _ _ _|_ er|soll- * *|te.|
V:4
"^1)" G,4 G,4 | C,2 F,4 D,2 | _E,2 C,2 D,4 | z2 D,2 D,2 G,,2 | C,4 F,,2 G,,2- | G,,2 D,2 G,,4 | %6
w: Hö- ret|mir zu, spricht|Gott der Herr:|war- lich, da|gilt sonst kei-|* ner mehr,|
 G,4 F,4- | F,2 C,2 D,4 | B,,4 C,4 | B,,4 z2 B,,2- | B,,2 B,,2 F,4 | G,2 A,2 B,2 G,2 | F,4 z2 C,2 | %13
w: er helfst|_ auch wie|er wol-|te, die|_ ihr ken-|net Ge- rech- tig-|keit, wer|
 C,2 C,2 F,4 | C,2 D,4 A,,2 | D,6 D,2 | B,,4 C,4 | D,4 _E,4 | D,8 | G,,4 D,4 | B,,4 C,4 | %21
w: an- ders sagt|ver- führt die|Leut und|thut nicht|was er|soll-|te, und|thut nicht|
 D,4 _E,4 | D,8 | G,,8 |] %24
w: was er|soll-|te.|

